images/28641.svg

<?xml version="1.0" encoding="UTF-8"?>
<svg xmlns="http://www.w3.org/2000/svg" xmlns:xlink="http://www.w3.org/1999/xlink" width="300pt" height="300pt" viewBox="0 0 300 300" version="1.1">
<defs>
<g>
<symbol overflow="visible" id="glyph0-0">
<path style="stroke:none;" d="M 0.59375 2.125 L 0.59375 -8.46875 L 6.59375 -8.46875 L 6.59375 2.125 Z M 1.265625 1.453125 L 5.9375 1.453125 L 5.9375 -7.78125 L 1.265625 -7.78125 Z M 1.265625 1.453125 "/>
</symbol>
<symbol overflow="visible" id="glyph0-1">
<path style="stroke:none;" d="M 1.171875 -8.75 L 6.203125 -8.75 L 6.203125 -7.75 L 2.359375 -7.75 L 2.359375 -5.171875 L 5.828125 -5.171875 L 5.828125 -4.171875 L 2.359375 -4.171875 L 2.359375 0 L 1.171875 0 Z M 1.171875 -8.75 "/>
</symbol>
<symbol overflow="visible" id="glyph0-2">
<path style="stroke:none;" d="M 1.171875 -8.75 L 2.765625 -8.75 L 6.65625 -1.4375 L 6.65625 -8.75 L 7.796875 -8.75 L 7.796875 0 L 6.203125 0 L 2.328125 -7.3125 L 2.328125 0 L 1.171875 0 Z M 1.171875 -8.75 "/>
</symbol>
<symbol overflow="visible" id="glyph0-3">
<path style="stroke:none;" d="M 4.734375 -7.953125 C 3.867188 -7.953125 3.179688 -7.628906 2.671875 -6.984375 C 2.171875 -6.347656 1.921875 -5.472656 1.921875 -4.359375 C 1.921875 -3.265625 2.171875 -2.394531 2.671875 -1.75 C 3.179688 -1.113281 3.867188 -0.796875 4.734375 -0.796875 C 5.585938 -0.796875 6.265625 -1.113281 6.765625 -1.75 C 7.273438 -2.394531 7.53125 -3.265625 7.53125 -4.359375 C 7.53125 -5.472656 7.273438 -6.347656 6.765625 -6.984375 C 6.265625 -7.628906 5.585938 -7.953125 4.734375 -7.953125 Z M 4.734375 -8.90625 C 5.953125 -8.90625 6.925781 -8.492188 7.65625 -7.671875 C 8.394531 -6.847656 8.765625 -5.742188 8.765625 -4.359375 C 8.765625 -2.984375 8.394531 -1.882812 7.65625 -1.0625 C 6.925781 -0.238281 5.953125 0.171875 4.734375 0.171875 C 3.503906 0.171875 2.519531 -0.238281 1.78125 -1.0625 C 1.039062 -1.882812 0.671875 -2.984375 0.671875 -4.359375 C 0.671875 -5.742188 1.039062 -6.847656 1.78125 -7.671875 C 2.519531 -8.492188 3.503906 -8.90625 4.734375 -8.90625 Z M 4.734375 -8.90625 "/>
</symbol>
<symbol overflow="visible" id="glyph0-4">
<path style="stroke:none;" d="M 1.171875 -8.75 L 2.359375 -8.75 L 2.359375 -5.15625 L 6.65625 -5.15625 L 6.65625 -8.75 L 7.84375 -8.75 L 7.84375 0 L 6.65625 0 L 6.65625 -4.171875 L 2.359375 -4.171875 L 2.359375 0 L 1.171875 0 Z M 1.171875 -8.75 "/>
</symbol>
<symbol overflow="visible" id="glyph1-0">
<path style="stroke:none;" d="M 0.5 1.765625 L 0.5 -7.046875 L 5.5 -7.046875 L 5.5 1.765625 Z M 1.0625 1.21875 L 4.9375 1.21875 L 4.9375 -6.484375 L 1.0625 -6.484375 Z M 1.0625 1.21875 "/>
</symbol>
<symbol overflow="visible" id="glyph1-1">
<path style="stroke:none;" d="M 1.921875 -0.828125 L 5.359375 -0.828125 L 5.359375 0 L 0.734375 0 L 0.734375 -0.828125 C 1.109375 -1.210938 1.617188 -1.734375 2.265625 -2.390625 C 2.910156 -3.046875 3.316406 -3.46875 3.484375 -3.65625 C 3.796875 -4.007812 4.015625 -4.304688 4.140625 -4.546875 C 4.265625 -4.796875 4.328125 -5.039062 4.328125 -5.28125 C 4.328125 -5.664062 4.191406 -5.976562 3.921875 -6.21875 C 3.648438 -6.46875 3.296875 -6.59375 2.859375 -6.59375 C 2.546875 -6.59375 2.21875 -6.535156 1.875 -6.421875 C 1.539062 -6.316406 1.175781 -6.15625 0.78125 -5.9375 L 0.78125 -6.9375 C 1.175781 -7.09375 1.546875 -7.210938 1.890625 -7.296875 C 2.234375 -7.378906 2.550781 -7.421875 2.84375 -7.421875 C 3.59375 -7.421875 4.191406 -7.234375 4.640625 -6.859375 C 5.097656 -6.484375 5.328125 -5.976562 5.328125 -5.34375 C 5.328125 -5.039062 5.269531 -4.753906 5.15625 -4.484375 C 5.039062 -4.222656 4.835938 -3.910156 4.546875 -3.546875 C 4.460938 -3.453125 4.203125 -3.175781 3.765625 -2.71875 C 3.328125 -2.269531 2.710938 -1.640625 1.921875 -0.828125 Z M 1.921875 -0.828125 "/>
</symbol>
</g>
</defs>
<g id="surface18293">
<rect x="0" y="0" width="300" height="300" style="fill:rgb(100%,100%,100%);fill-opacity:1;stroke:none;"/>
<path style="fill:none;stroke-width:1.2;stroke-linecap:butt;stroke-linejoin:miter;stroke:rgb(20%,80%,80%);stroke-opacity:1;stroke-miterlimit:10;" d="M 35.25 186.628906 L 48.019531 179.523438 "/>
<path style="fill:none;stroke-width:1.2;stroke-linecap:butt;stroke-linejoin:miter;stroke:rgb(0%,0%,0%);stroke-opacity:1;stroke-miterlimit:10;" d="M 48.019531 179.523438 L 60.785156 172.417969 "/>
<path style=" stroke:none;fill-rule:nonzero;fill:rgb(100%,100%,100%);fill-opacity:1;" d="M 28.25 179.628906 L 35.25 179.628906 L 35.25 193.628906 L 28.25 193.628906 Z M 28.25 179.628906 "/>
<g style="fill:rgb(20%,80%,80%);fill-opacity:1;">
  <use xlink:href="#glyph0-1" x="28.25" y="190.767578"/>
</g>
<path style="fill:none;stroke-width:1.2;stroke-linecap:butt;stroke-linejoin:miter;stroke:rgb(0%,0%,0%);stroke-opacity:1;stroke-miterlimit:10;" d="M 60.785156 172.417969 L 61.25 143.199219 "/>
<path style="fill:none;stroke-width:1.2;stroke-linecap:butt;stroke-linejoin:miter;stroke:rgb(0%,0%,0%);stroke-opacity:1;stroke-miterlimit:10;" d="M 67.707031 169.605469 L 68.078125 146.230469 "/>
<path style="fill:none;stroke-width:1.2;stroke-linecap:butt;stroke-linejoin:miter;stroke:rgb(0%,0%,0%);stroke-opacity:1;stroke-miterlimit:10;" d="M 85.863281 187.429688 L 60.785156 172.417969 "/>
<path style="fill:none;stroke-width:1.2;stroke-linecap:butt;stroke-linejoin:miter;stroke:rgb(0%,0%,0%);stroke-opacity:1;stroke-miterlimit:10;" d="M 61.25 143.199219 L 86.785156 128.988281 "/>
<path style="fill:none;stroke-width:1.2;stroke-linecap:butt;stroke-linejoin:miter;stroke:rgb(0%,0%,0%);stroke-opacity:1;stroke-miterlimit:10;" d="M 86.785156 128.988281 L 111.859375 143.996094 "/>
<path style="fill:none;stroke-width:1.2;stroke-linecap:butt;stroke-linejoin:miter;stroke:rgb(0%,0%,0%);stroke-opacity:1;stroke-miterlimit:10;" d="M 85.761719 136.390625 L 105.820312 148.398438 "/>
<path style="fill:none;stroke-width:1.2;stroke-linecap:butt;stroke-linejoin:miter;stroke:rgb(0%,0%,0%);stroke-opacity:1;stroke-miterlimit:10;" d="M 111.859375 143.996094 L 124.628906 136.894531 "/>
<path style="fill:none;stroke-width:1.2;stroke-linecap:butt;stroke-linejoin:miter;stroke:rgb(0%,0%,100%);stroke-opacity:1;stroke-miterlimit:10;" d="M 124.628906 136.894531 L 137.398438 129.789062 "/>
<path style="fill:none;stroke-width:1.2;stroke-linecap:butt;stroke-linejoin:miter;stroke:rgb(0%,0%,0%);stroke-opacity:1;stroke-miterlimit:10;" d="M 111.859375 143.996094 L 111.398438 173.21875 "/>
<path style="fill:none;stroke-width:1.2;stroke-linecap:butt;stroke-linejoin:miter;stroke:rgb(0%,0%,100%);stroke-opacity:1;stroke-miterlimit:10;" d="M 137.398438 129.789062 L 140.910156 100.773438 "/>
<path style="fill:none;stroke-width:1.2;stroke-linecap:butt;stroke-linejoin:miter;stroke:rgb(0%,0%,0%);stroke-opacity:1;stroke-miterlimit:10;" d="M 163.902344 142.09375 L 150.648438 135.941406 "/>
<path style="fill:none;stroke-width:1.2;stroke-linecap:butt;stroke-linejoin:miter;stroke:rgb(0%,0%,100%);stroke-opacity:1;stroke-miterlimit:10;" d="M 150.648438 135.941406 L 137.398438 129.789062 "/>
<path style=" stroke:none;fill-rule:nonzero;fill:rgb(100%,100%,100%);fill-opacity:1;" d="M 133.398438 122.789062 L 142.398438 122.789062 L 142.398438 136.789062 L 133.398438 136.789062 Z M 133.398438 122.789062 "/>
<g style="fill:rgb(0%,0%,100%);fill-opacity:1;">
  <use xlink:href="#glyph0-2" x="133.398438" y="133.927734"/>
</g>
<path style="fill:none;stroke-width:1.2;stroke-linecap:butt;stroke-linejoin:miter;stroke:rgb(0%,0%,100%);stroke-opacity:1;stroke-miterlimit:10;" d="M 140.910156 100.773438 L 155.25 97.964844 "/>
<path style="fill:none;stroke-width:1.2;stroke-linecap:butt;stroke-linejoin:miter;stroke:rgb(0%,0%,0%);stroke-opacity:1;stroke-miterlimit:10;" d="M 155.25 97.964844 L 169.589844 95.152344 "/>
<path style="fill:none;stroke-width:1.2;stroke-linecap:butt;stroke-linejoin:miter;stroke:rgb(0%,0%,100%);stroke-opacity:1;stroke-miterlimit:10;" d="M 145.101562 106.960938 L 156.574219 104.710938 "/>
<path style="fill:none;stroke-width:1.2;stroke-linecap:butt;stroke-linejoin:miter;stroke:rgb(0%,0%,0%);stroke-opacity:1;stroke-miterlimit:10;" d="M 156.574219 104.710938 L 168.042969 102.460938 "/>
<path style=" stroke:none;fill-rule:nonzero;fill:rgb(100%,100%,100%);fill-opacity:1;" d="M 136.910156 93.773438 L 145.910156 93.773438 L 145.910156 107.773438 L 136.910156 107.773438 Z M 136.910156 93.773438 "/>
<g style="fill:rgb(0%,0%,100%);fill-opacity:1;">
  <use xlink:href="#glyph0-2" x="136.910156" y="104.912109"/>
</g>
<path style="fill:none;stroke-width:1.2;stroke-linecap:butt;stroke-linejoin:miter;stroke:rgb(0%,0%,0%);stroke-opacity:1;stroke-miterlimit:10;" d="M 169.589844 95.152344 L 183.800781 120.6875 "/>
<path style="fill:none;stroke-width:1.2;stroke-linecap:butt;stroke-linejoin:miter;stroke:rgb(0%,0%,0%);stroke-opacity:1;stroke-miterlimit:10;" d="M 183.800781 120.6875 L 212.8125 124.203125 "/>
<path style="fill:none;stroke-width:1.2;stroke-linecap:butt;stroke-linejoin:miter;stroke:rgb(0%,0%,0%);stroke-opacity:1;stroke-miterlimit:10;" d="M 183.800781 120.6875 L 163.902344 142.09375 "/>
<path style="fill:none;stroke-width:1.2;stroke-linecap:butt;stroke-linejoin:miter;stroke:rgb(0%,0%,0%);stroke-opacity:1;stroke-miterlimit:10;" d="M 176.773438 118.148438 L 160.855469 135.273438 "/>
<path style="fill:none;stroke-width:1.2;stroke-linecap:butt;stroke-linejoin:miter;stroke:rgb(0%,0%,0%);stroke-opacity:1;stroke-miterlimit:10;" d="M 215.558594 126.265625 L 224.335938 114.582031 "/>
<path style="fill:none;stroke-width:1.2;stroke-linecap:butt;stroke-linejoin:miter;stroke:rgb(100%,0%,0%);stroke-opacity:1;stroke-miterlimit:10;" d="M 224.335938 114.582031 L 233.109375 102.898438 "/>
<path style="fill:none;stroke-width:1.2;stroke-linecap:butt;stroke-linejoin:miter;stroke:rgb(0%,0%,0%);stroke-opacity:1;stroke-miterlimit:10;" d="M 210.0625 122.136719 L 218.835938 110.453125 "/>
<path style="fill:none;stroke-width:1.2;stroke-linecap:butt;stroke-linejoin:miter;stroke:rgb(100%,0%,0%);stroke-opacity:1;stroke-miterlimit:10;" d="M 218.835938 110.453125 L 227.609375 98.769531 "/>
<path style="fill:none;stroke-width:1.2;stroke-linecap:butt;stroke-linejoin:miter;stroke:rgb(0%,0%,0%);stroke-opacity:1;stroke-miterlimit:10;" d="M 212.8125 124.203125 L 224.273438 151.085938 "/>
<path style=" stroke:none;fill-rule:nonzero;fill:rgb(100%,100%,100%);fill-opacity:1;" d="M 225.359375 93.832031 L 235.359375 93.832031 L 235.359375 107.832031 L 225.359375 107.832031 Z M 225.359375 93.832031 "/>
<g style="fill:rgb(100%,0%,0%);fill-opacity:1;">
  <use xlink:href="#glyph0-3" x="225.359375" y="104.970703"/>
</g>
<path style="fill:none;stroke-width:1.2;stroke-linecap:butt;stroke-linejoin:miter;stroke:rgb(0%,0%,0%);stroke-opacity:1;stroke-miterlimit:10;" d="M 224.273438 151.085938 L 206.726562 174.453125 "/>
<path style="fill:none;stroke-width:1.2;stroke-linecap:butt;stroke-linejoin:miter;stroke:rgb(0%,0%,0%);stroke-opacity:1;stroke-miterlimit:10;" d="M 228.019531 157.550781 L 213.980469 176.246094 "/>
<path style="fill:none;stroke-width:1.2;stroke-linecap:butt;stroke-linejoin:miter;stroke:rgb(0%,0%,0%);stroke-opacity:1;stroke-miterlimit:10;" d="M 253.285156 154.597656 L 224.273438 151.085938 "/>
<path style="fill:none;stroke-width:1.2;stroke-linecap:butt;stroke-linejoin:miter;stroke:rgb(0%,0%,0%);stroke-opacity:1;stroke-miterlimit:10;" d="M 206.726562 174.453125 L 218.1875 201.335938 "/>
<path style="fill:none;stroke-width:1.2;stroke-linecap:butt;stroke-linejoin:miter;stroke:rgb(0%,0%,0%);stroke-opacity:1;stroke-miterlimit:10;" d="M 218.1875 201.335938 L 247.199219 204.847656 "/>
<path style="fill:none;stroke-width:1.2;stroke-linecap:butt;stroke-linejoin:miter;stroke:rgb(0%,0%,0%);stroke-opacity:1;stroke-miterlimit:10;" d="M 221.917969 194.859375 L 245.125 197.671875 "/>
<path style="fill:none;stroke-width:1.2;stroke-linecap:butt;stroke-linejoin:miter;stroke:rgb(0%,0%,0%);stroke-opacity:1;stroke-miterlimit:10;" d="M 247.199219 204.847656 L 264.75 181.480469 "/>
<path style="fill:none;stroke-width:1.2;stroke-linecap:butt;stroke-linejoin:miter;stroke:rgb(0%,0%,0%);stroke-opacity:1;stroke-miterlimit:10;" d="M 264.75 181.480469 L 253.285156 154.597656 "/>
<path style="fill:none;stroke-width:1.2;stroke-linecap:butt;stroke-linejoin:miter;stroke:rgb(0%,0%,0%);stroke-opacity:1;stroke-miterlimit:10;" d="M 257.277344 181.488281 L 248.109375 159.984375 "/>
<path style="fill:none;stroke-width:1.2;stroke-linecap:butt;stroke-linejoin:miter;stroke:rgb(0%,0%,0%);stroke-opacity:1;stroke-miterlimit:10;" d="M 163.902344 142.09375 L 166.714844 156.433594 "/>
<path style="fill:none;stroke-width:1.2;stroke-linecap:butt;stroke-linejoin:miter;stroke:rgb(0%,0%,100%);stroke-opacity:1;stroke-miterlimit:10;" d="M 166.714844 156.433594 L 169.527344 170.773438 "/>
<path style=" stroke:none;fill-rule:nonzero;fill:rgb(100%,100%,100%);fill-opacity:1;" d="M 157.527344 161.273438 L 182.527344 161.273438 L 182.527344 180.273438 L 157.527344 180.273438 Z M 157.527344 161.273438 "/>
<g style="fill:rgb(0%,0%,100%);fill-opacity:1;">
  <use xlink:href="#glyph0-2" x="157.527344" y="172.412109"/>
  <use xlink:href="#glyph0-4" x="166.503906" y="172.412109"/>
</g>
<g style="fill:rgb(0%,0%,100%);fill-opacity:1;">
  <use xlink:href="#glyph1-1" x="175.527344" y="177.294922"/>
</g>
<path style="fill:none;stroke-width:1.2;stroke-linecap:butt;stroke-linejoin:miter;stroke:rgb(0%,0%,0%);stroke-opacity:1;stroke-miterlimit:10;" d="M 111.398438 173.21875 L 85.863281 187.429688 "/>
<path style="fill:none;stroke-width:1.2;stroke-linecap:butt;stroke-linejoin:miter;stroke:rgb(0%,0%,0%);stroke-opacity:1;stroke-miterlimit:10;" d="M 105.5 168.632812 L 85.070312 180 "/>
</g>
</svg>

<svg xmlns="http://www.w3.org/2000/svg" xmlns:xlink="http://www.w3.org/1999/xlink" width="300pt" height="300pt" viewBox="0 0 300 300"><defs><symbol overflow="visible"><path d="M.594 2.125V-8.47h6V2.126zm.672-.672h4.671V-7.78h-4.67zm0 0"/></symbol><symbol overflow="visible" id="a"><path d="M1.172-8.75h5.03v1H2.36v2.578h3.468v1h-3.47V0H1.173zm0 0"/></symbol><symbol overflow="visible" id="b"><path d="M1.172-8.75h1.594l3.89 7.313V-8.75h1.14V0H6.204L2.328-7.313V0H1.172zm0 0"/></symbol><symbol overflow="visible" id="c"><path d="M4.734-7.953c-.867 0-1.554.324-2.062.97-.5.635-.75 1.51-.75 2.624 0 1.094.25 1.965.75 2.61.508.637 1.195.953 2.062.953.852 0 1.532-.316 2.032-.953.507-.645.765-1.516.765-2.61 0-1.113-.257-1.988-.764-2.624-.5-.645-1.18-.97-2.032-.97zm0-.953c1.22 0 2.192.414 2.922 1.234.74.824 1.11 1.93 1.11 3.313 0 1.376-.37 2.477-1.11 3.298C6.926-.24 5.953.17 4.734.17c-1.23 0-2.214-.41-2.953-1.234C1.04-1.882.673-2.984.673-4.36c0-1.382.367-2.488 1.11-3.312.738-.82 1.722-1.234 2.952-1.234zm0 0"/></symbol><symbol overflow="visible" id="d"><path d="M1.172-8.75H2.36v3.594h4.296V-8.75h1.188V0H6.656v-4.172H2.36V0H1.17zm0 0"/></symbol><symbol overflow="visible"><path d="M.5 1.766v-8.813h5v8.813zm.563-.547h3.875v-7.704H1.063zm0 0"/></symbol><symbol overflow="visible" id="e"><path d="M1.922-.828H5.36V0H.733v-.828c.375-.383.883-.906 1.532-1.563.644-.657 1.05-1.08 1.218-1.266.313-.352.532-.65.657-.89.126-.25.188-.493.188-.735 0-.384-.137-.697-.406-.94-.274-.25-.625-.374-1.063-.374-.313 0-.64.06-.985.172-.336.106-.7.266-1.094.484v-1c.396-.156.767-.273 1.11-.36.344-.08.66-.124.954-.124.75 0 1.347.188 1.797.563.458.376.688.883.688 1.516 0 .305-.058.59-.172.86-.117.26-.32.574-.61.937-.085.094-.343.37-.78.828-.438.45-1.055 1.08-1.844 1.892zm0 0"/></symbol></defs><g><path fill="#fff" d="M0 0h300v300H0z"/><path d="M35.25 186.63l12.77-7.107" stroke-width="1.2" stroke="#3cc" stroke-miterlimit="10" fill="none"/><path d="M48.02 179.523l12.765-7.105" stroke-width="1.2" stroke="#000" stroke-miterlimit="10" fill="none"/><path d="M28.25 179.63h7v14h-7zm0 0" fill="#fff"/><use xlink:href="#a" x="28.25" y="190.768" fill="#3cc"/><path d="M60.785 172.418l.465-29.22M67.707 169.605l.37-23.375M85.863 187.43l-25.078-15.012M61.25 143.2l25.535-14.212M86.785 128.988l25.074 15.008M85.762 136.39L105.82 148.4M111.86 143.996l12.77-7.1" stroke-width="1.2" stroke="#000" stroke-miterlimit="10" fill="none"/><path d="M124.63 136.895l12.768-7.106" stroke-width="1.2" stroke="#00f" stroke-miterlimit="10" fill="none"/><path d="M111.86 143.996l-.462 29.223" stroke-width="1.2" stroke="#000" stroke-miterlimit="10" fill="none"/><path d="M137.398 129.79l3.512-29.017" stroke-width="1.2" stroke="#00f" stroke-miterlimit="10" fill="none"/><path d="M163.902 142.094l-13.254-6.153" stroke-width="1.2" stroke="#000" stroke-miterlimit="10" fill="none"/><path d="M150.648 135.94l-13.25-6.15" stroke-width="1.2" stroke="#00f" stroke-miterlimit="10" fill="none"/><path d="M133.398 122.79h9v14h-9zm0 0" fill="#fff"/><use xlink:href="#b" x="133.398" y="133.928" fill="#00f"/><path d="M140.91 100.773l14.34-2.808" stroke-width="1.2" stroke="#00f" stroke-miterlimit="10" fill="none"/><path d="M155.25 97.965l14.34-2.813" stroke-width="1.2" stroke="#000" stroke-miterlimit="10" fill="none"/><path d="M145.102 106.96l11.472-2.25" stroke-width="1.2" stroke="#00f" stroke-miterlimit="10" fill="none"/><path d="M156.574 104.71l11.47-2.25" stroke-width="1.2" stroke="#000" stroke-miterlimit="10" fill="none"/><path d="M136.91 93.773h9v14h-9zm0 0" fill="#fff"/><use xlink:href="#b" x="136.91" y="104.912" fill="#00f"/><path d="M169.59 95.152l14.21 25.535M183.8 120.688l29.012 3.515M183.8 120.688l-19.898 21.406M176.773 118.148l-15.918 17.125M215.56 126.266l8.776-11.684" stroke-width="1.2" stroke="#000" stroke-miterlimit="10" fill="none"/><path d="M224.336 114.582l8.773-11.684" stroke-width="1.2" stroke="#f00" stroke-miterlimit="10" fill="none"/><path d="M210.063 122.137l8.773-11.684" stroke-width="1.2" stroke="#000" stroke-miterlimit="10" fill="none"/><path d="M218.836 110.453l8.773-11.683" stroke-width="1.2" stroke="#f00" stroke-miterlimit="10" fill="none"/><path d="M212.813 124.203l11.46 26.883" stroke-width="1.2" stroke="#000" stroke-miterlimit="10" fill="none"/><path d="M225.36 93.832h10v14h-10zm0 0" fill="#fff"/><use xlink:href="#c" x="225.359" y="104.971" fill="#f00"/><path d="M224.273 151.086l-17.546 23.367M228.02 157.55l-14.04 18.696M253.285 154.598l-29.012-3.512M206.727 174.453l11.46 26.883M218.188 201.336l29.01 3.512M221.918 194.86l23.207 2.812M247.2 204.848l17.55-23.368M264.75 181.48l-11.465-26.882M257.277 181.488l-9.168-21.504M163.902 142.094l2.813 14.34" stroke-width="1.2" stroke="#000" stroke-miterlimit="10" fill="none"/><path d="M166.715 156.434l2.812 14.34" stroke-width="1.2" stroke="#00f" stroke-miterlimit="10" fill="none"/><path d="M157.527 161.273h25v19h-25zm0 0" fill="#fff"/><g fill="#00f"><use xlink:href="#b" x="157.527" y="172.412"/><use xlink:href="#d" x="166.504" y="172.412"/></g><use xlink:href="#e" x="175.527" y="177.295" fill="#00f"/><path d="M111.398 173.22l-25.535 14.21M105.5 168.633L85.07 180" stroke-width="1.2" stroke="#000" stroke-miterlimit="10" fill="none"/></g></svg>
